X: 6167
T: Captain Tom Connolly's
R: reel
M: 4/4
K: Gmajor
|:Bc|dBgB cAFA|DGBG FGAF|DGBd gdBd|cBAG FGAF|
DGBG B,DFA|GABc dFAc|dg{a}gf gbag|fdcA G2:|
|:ef|fgdg Bgdg|Bcde fdde|fg{a}gf d3a|gfga bggf|
gbaf gagf|d^cde fefg|{a}gf{g}fe defd|cAFA G2:|

